X:1
T:Ma mère veult que ie file
T:Jean Le Brun
T:Source : Livre II de 26 chansons nouvelles à 4 parties---Paris---N.du Chemin---1549. Editor : André Vierendeels (12/02/18). Notes : Original clefs : G2, C2, C3, F3 Original note values have been halved Editorial accidentals above the stave m 14 in B : "H" not dotted original print m  19 in T : third "D" notated as "C" in original print
T:Ma mère veult que ie file
T:©
T:©
T:©
T:©
T:©
C:Le Brun
Z:©
%%score [ 1 2 3 4 ]
L:1/8
Q:1/4=120
M:2/2
K:F
V:1 treble nm="Soprano" snm="S"
V:2 treble nm="Alto" snm="A"
V:3 treble-8 nm="Tenor" snm="T"
V:4 bass nm="Bass" snm="B"
V:1
 G4 G2 F2- | F2 B2 AG F2 | G4 B2 BB | c2 d2 d2 c2 | d4 z4 | z8 | B2 BB A2 G2 |"^#" G2 F2 G4 | %8
w: Ma mè- re|_ veult que ie fi-|le, et si i'ay|si grand mal au|bra||et si i'ay si grand|mal au bra,|
w: Ma co- quil-|* le me fre- til-|le, i'ay- me- rois|mieulx fai- re ce-|la,||i'ay- me- rois mieulx fai-|re ce- la,|
 B2 BB A2 G2 |[M:2/4]"^#" G2 F2 |1 G4 :|2[M:2/2] G2 d4 d2 || c2 B2 B2 A2 | B4 B3 B | AGAB A4- | %15
w: et si iay si grand|mal au|bra,|la, l'aul- tre|iour il m'ad- vi-|sa, d'ap- pren-|dre'u- neoeu- vre à l'es-|
w: i'ay- me- rois mieulx fai-|re ce-|(la,)|||||
 A2 G2 A4 | F2 B2 B4 | B4 A4 | z2 B2 B2 B2 | A3 A BA G2 | F4 z4 | B4 c2 d2 | d2 c2 d2 B2 | %23
w: * * guil-|le, trois poincts|cou- si,|trois poincts cou-|sa, tout d'u- n'es guil-|le,|tout d'u- n'es-|guil- * le'à la|
w: ||||||||
 B2 c2 B2 A2- |"^#" A2 G4 F2 | G2 z B B2 c2 | B2 A4 G2 | G2 F2 G4 | z2 G2 G2 F2- | F2 B2 AG F2 | %30
w: qua- tri- es- m'el-|* le ploy-|a, à la qua-|tri- es- m'el-|le ploy- a|ma mè- re|_ veult que ie fi-|
w: |||||||
 G4 B2 BB | c2 d2 d2 c2 | d4 z4 | z8 | B2 BB A2 G2 |[M:2/4] G2 F2 | G4 |[M:2/2] B2 BB A2 G2 | %38
w: le, et si i'ay|si grand mal au|bra,||et si i'ay si grand|mal au|bra,|et si i'ay si grand|
w: ||||||||
[M:2/4]"^#" G2 F2 |[M:2/2] G8 |] %40
w: mal au|bra.|
w: ||
V:2
 D4 D2 D2- | D2 F2 FE D2 | D4 G2 GG | A2 G2 F2 E2 | D4 z4 | z8 | G2 GF F2 D2 | E2 D2 D4 | %8
w: Ma mè- re|_ veult que ie fi-|le, et si i'ay|si grand mal au|bra,||et si i'ay si grand|mal au bra,|
w: Ma co- quil-|* le me fre- til-|le, i'ay- me- rois|mieulx fai- re ce-|la,||i'ay- me- rois mieulx fai-|re ce- la,|
 G2 GF F2 D2 |[M:2/4] E2 D2 |1 D4 :|2[M:2/2] D2 F4 F2 || F2 D2 F2 F2 | F4 F3 F | FDFF F2 C2 | %15
w: et si i'ay si grand|mal au|bra,|la, l'aul tre|iour il m'ad- vi-|sa, d'ap- pren-|dre'u- ne'oeu- vre à l'es- guil-|
w: i'ay- me- rois mieulx fai-|re ce-|(la,)|||||
 C2 D2 E4 | F2 G2 G4 | F4 F4 | z2 G2 G2 F2 | F4 z4 | z2 F2 GF E2 | DEFG A2 B2 | A4 F2 G2 | %23
w: le'à l'es- guil|le, trois poincts|cou- si,|trois poincts cou-|sa,|tout d'u- n'es- guil-||* le, à|
w: ||||||||
 G2 G2 G2 F2 | FEDC D2 D2 | D2 z G G2 G2 | G2 F2 FEDC | D2 D2 B,4 | z2 D2 D2 D2- | D2 F2 FE D2 | %30
w: la qua- tri- es-|m'el- * * * le ploy-|a, à la qua-|tri- es- m'el- * * *|le ploy- a,|ma mè- re|_ veult que ie fi-|
w: |||||||
 D4 G2 GG | A2 G2 F2 E2 | D4 z4 | z8 | G2 GF F2 D2 |[M:2/4] E2 D2 | D4 |[M:2/2] G2 GG F2 D2 | %38
w: le, et si i'ay|si grand mal au|bra,||et si i'ay si grand|mal au|bra,|et si i'ay si grand|
w: ||||||||
[M:2/4] E2 D2 |[M:2/2] D8 |] %40
w: mal au|bra.|
w: ||
V:3
 B4 B2 A2- | A2 d2 cB A2 | G8 | z8 | B2 BB c2 d2 | d2 c2 d4 | d2 dd c2 B2 | c2 A2 G4 | %8
w: Ma mè- re|_ veult que ie fi-|le,||et si iay si grand|mal au bra,|et si i'ay si grand|mal au bra,|
w: Ma co- quil-|* le me fre- til-|le,||i'ay- me- rois mieulx fai-|re ce- la,|i'ay- me- rois mieulx fai-|re ce- la,|
 d2 dd c2 B2 |[M:2/4] c2 A2 |1 G4 :|2[M:2/2] G2 A4 B2 || A2 B2 c2 c2 | B4 d3 d | cBcd c2 f2 | %15
w: et si i'ay si grand|mal au|bra,|la, l'aul- tre|iour il m'ad- vi-|sa d'ap- pren-|dre'u- ne'oeu- vre à l'es- guil-|
w: i'ay- me- rois mieulx fai-|re ce-|(la,)|||||
 e2 d4 c2 | d2 d2 d4 | d4 c4 | z2 d2 d2 d2 | c3 c Bd dc | d2 A2 GB BA |"^b" B2 d2 e2 g2 | %22
w: le'à l'es- guil-|le, trois poincts|cou- si,|trois poincts cou-|sa, tout d'u- n'es- guil- *|le tout d'u- n'es- guil- *|le, à la qua-|
w: |||||||
 f2 e2 d2 d2 | d2 e2 d3 d | cBAG A2 A2 | G2 d2 d2 e2 | d3 d cBAG | A2 A2 G4 | z2 B2 B2 A2- | %29
w: tri- es- me, à|la qua- tri- es-|m'el- * * * le ploy-|a, à la qua-|tri- es- m'el- * * *|le ploy- a,|ma mè- re|
w: |||||||
 A2 d2 cB A2 | G8 | z8 | B2 BB c2 d2 | d2 c2 d4 | d2 dd c2 B2 |[M:2/4] c2 A2 | G4 | %37
w: _ veult que ie fi-|le,||et si iay si grand|mal au bra,|et si i'ay si grand|mal au|bra,|
w: ||||||||
[M:2/2] d2 dd c2 B2 |[M:2/4] c2 A2 |[M:2/2] G8 |] %40
w: et si i'ay si grand|mal au|bra,|
w: |||
V:4
 G,4 G,2 D,2- | D,2 B,,2 F,G, D,2 | G,8 | z8 | G,2 G,G, A,2 G,2 | F,2 E,2 D,4 | G,2 G,D, F,2 G,2 | %7
w: Ma mè- re|_ veult que ie fi-|le,||et si i'ay si grand|mal au bra,|et si i'ay si grand|
w: Ma co- quil-|* le me fre- til-|le,||i'ay- me- rois mieulx fai-|re ce- la,|i'ay- me- rois mieulx fai-|
 C,2 D,2 G,4 | G,2 G,D, F,2 G,2 |[M:2/4] C,2 D,2 |1 G,4 :|2[M:2/2] G,2 D,4 B,,2 || %12
w: mal au bra,|et si i'ay si grand|mal au|bra,|la, l'aul- tre|
w: re ce- la,|i'ay- me- rois mieulx fai-|re ce-|(la,)||
 F,2 G,2 F,2 F,2 | B,,4 B,,3 B,, | F,B,,F,B,, F,3 G, | A,2 B,2 A,4 |"^#" D,2 G,2 G,4 | B,4 F,4 | %18
w: iour il m'ad- vi-|sa, d'ap- pren-|dre'u- ne'oeu- vre à l'es- guil-|le'à l'es- guil-|le, trois poincts|cou- si,|
w: ||||||
 z2 G,2 G,2 B,2 | F,3 F, G,F, E,2 | D,3 D, E,D, C,2 | B,,2 B,2 A,2 G,2 | A,4 D,2 G,2 | %23
w: trois poincts cou-|sa, tout d'u- n'es- guil-|le, tout d'u- n'es- guil-|le, tout d'u- n'es-|guil- le'à la|
w: |||||
 G,2 C,2 G,2 D,2 | F,2 G,2 D,4 | z2 G,2 G,2 C,2 | G,2 D,2 F,2 G,2 | D,4 G,4 | z2 G,2 G,2 D,2- | %29
w: qua- tri- es- m'el-|le ploy- a,|à la qua-|tri es- m'el- le|ploy- a,|ma mè- re|
w: ||||||
 D,2 B,,2 F,G, D,2 | G,8 |"^#" z8 | G,2 G,G, A,2 G,2 | F,2 E,2 D,4 | G,2 G,D, F,2 G,2 | %35
w: _ veult que ie fi-|le,||et si i'ay si grand|mal au bra,|et si i'ay si grand|
w: ||||||
[M:2/4] C,2 D,2 | G,4 |[M:2/2] G,2 G,D, F,2 G,2 |[M:2/4] C,2 D,2 |[M:2/2] G,8 |] %40
w: mal au|bra,|et si i'ay si grand|mal au|bra.|
w: |||||

